X:1
T:Pair of Wintry Winds
T:Short Version Easy
T:Pair of Wintry Winds
%%score { 1 | 2 }
L:1/8
Q:1/4=100
M:4/4
K:Gb
V:1 treble nm="Piano" snm="Pno."
V:2 bass 
V:1
 z2 z2 z2 eb | b2 eb abd'b | abed e2 eb | b2 eb d'bd'f' | f'g'f'd' b2 eb | b2 eb abd'b | %6
 agab e2 Be | e2 Be fgfd | degf e2 Bd | e2- ee dBdB | ABAB E2 Bd | e2- ee dBde | fgfg e2 Bd | %13
 e2- eB dBAB | AGAB E2 Bd | e2- eB dBAB | e4 e2 a2 | b2 ag agd'a | b2 bd' b2 d'f' | %19
 g'f'e'd' bad'a | abae b2 Bf | g2 fe f2 ga | ba ee/d/ B2 AB | e4- eeae | b4 z2 eb | b2 eb abd'b | %26
 abed e2 eb | b2 eb d'bd'f' | f'g'f'd' b2 eb | b2 eb abd'b | agab e2 Be | e2 Be fgfd | degf e4 |] %33
V:2
 z8 |!ped! C,G, C2 D,A, D2 |!ped! E,!ped-up!B, E2 D,A, D2 |!ped! C,!ped-up!G, C2 D,A, D2 | %4
!ped! E,!ped-up!B, E2 D,A, D2 |!ped! C,!ped-up!G, C2 D,A, D2 |!ped! E,!ped-up!B, E2 D,A, D2 | %7
!ped! C,!ped-up!G, C2 D,A, D2 |!ped! E,!ped-up!B, E2 E,B,EB, |!ped! C,!ped-up!G,CG, D,A,DA, | %10
!ped! E,!ped-up!B,EB, D,A,DA, |!ped! C,!ped-up!G,CG, D,A,DA, |!ped! E,!ped-up!B,EB, D,A,DA, | %13
!ped! C,!ped-up!G,CG, D,A,DA, |!ped! E,!ped-up!B,EB, D,A,DA, |!ped! C,!ped-up!G,CG, D,A,DA, | %16
!ped! E,!ped-up!B,EA =G2 z2 |!ped! C,!ped-up!G, C2 D,A, D2 |!ped! E,!ped-up!B, E2 D,A, D2 | %19
!ped! C,!ped-up!G, C2 D,A, D2 |!ped! E,!ped-up!B, E2 D,A, D2 |!ped! C,!ped-up!G, C2 D,A, D2 | %22
!ped! E,!ped-up!B, E2 D,A, D2 |!ped! C,!ped-up!G, C2 D,A, D2 |!ped! E,!ped-up!B,EA =GE z2 | %25
!ped! C,!ped-up!G,CG, D,A,DA, |!ped! E,!ped-up!B,EB, D,A,DA, |!ped! C,!ped-up!G,CG, D,A,DA, | %28
!ped! E,!ped-up!B,EB, D,A,DA, |!ped! C,!ped-up!G,CG, D,A,DA, |!ped! E,!ped-up!B,EB, D,A,DA, | %31
!ped! C,!ped-up!G,CG, D,A,DA, |!ped! E,!ped-up!B,EB, !arpeggio![E,B,E]4 |] %33

